X:1195
T:Liverpool hornpipe
C:anon.
O:England
R:Hornpipe
Z:Transcribed by Frank Nordberg - http://www.musicaviva.com
F:http://abc.musicaviva.com/tunes/england/liverpool-hornpipe/liverpool-hornpipe.abc
M:2/4
L:1/16
K:D
uA2|"D"(FD)FA (df)af|"Em"(ge)fd "A"(dc)BA|"G"(GB)GB "D"(FA)FA|\
"A7"(EF)GA "D"(GF)ED|"D"(FD)FA (df)af|"Em"(ge)fd "A"(dc)BA|\
"D"(af)df "A7"(ge)cA|"D"d2d2 "^Fine"d2::z2|\
"Bm"(df)(df) "F#7"(ce)(ce)|"Bm"(Bcde) "A"(dcBA)|\
"G"(GB)GB "D"(FA)FA|"A7"(EF)GA "D"(GF)ED|"D"(FD)FA (df)af|\
"Em"(ge)fd "A"(dc)BA|"D"(af)df "A7"(ge)cA|"D"d2d2 "^D.C. al Fine"d2|]
W:
W:
W:  From Musica Viva - http://www.musicaviva.com
W:  the Internet center for free sheet music downloads.
